en/_assets/tracker/svg/cancel.svg

<svg width="85" height="20" viewBox="0 0 85 20" fill="none" xmlns="http://www.w3.org/2000/svg">
<g clip-path="url(#clip0_3479_35435)">
<path fill-rule="evenodd" clip-rule="evenodd" d="M16.125 10C16.125 12.2782 14.2782 14.125 12 14.125C9.72182 14.125 7.875 12.2782 7.875 10C7.875 7.72182 9.72182 5.875 12 5.875C14.2782 5.875 16.125 7.72182 16.125 10ZM17.25 10C17.25 12.8995 14.8995 15.25 12 15.25C9.1005 15.25 6.75 12.8995 6.75 10C6.75 7.1005 9.1005 4.75 12 4.75C14.8995 4.75 17.25 7.1005 17.25 10ZM10.8977 8.10225C10.6781 7.88258 10.3219 7.88258 10.1023 8.10225C9.88258 8.32192 9.88258 8.67808 10.1023 8.89775L11.2045 10L10.1023 11.1023C9.88258 11.3219 9.88258 11.6781 10.1023 11.8977C10.3219 12.1174 10.6781 12.1174 10.8977 11.8977L12 10.7955L13.1023 11.8977C13.3219 12.1174 13.6781 12.1174 13.8977 11.8977C14.1174 11.6781 14.1174 11.3219 13.8977 11.1023L12.7955 10L13.8977 8.89775C14.1174 8.67808 14.1174 8.32192 13.8977 8.10225C13.6781 7.88258 13.3219 7.88258 13.1023 8.10225L12 9.2045L10.8977 8.10225Z" fill="black" fill-opacity="0.7"/>
</g>
<path d="M28.135 14.13C27.4417 14.13 26.8133 14.0217 26.25 13.805C25.6867 13.5883 25.2013 13.2763 24.794 12.869C24.3953 12.453 24.0877 11.9503 23.871 11.361C23.6543 10.763 23.546 10.0913 23.546 9.346C23.546 8.592 23.6457 7.92033 23.845 7.331C24.0443 6.74167 24.339 6.24333 24.729 5.836C25.119 5.42 25.5957 5.10367 26.159 4.887C26.731 4.67033 27.381 4.562 28.109 4.562C28.7417 4.562 29.2963 4.63133 29.773 4.77C30.2497 4.9 30.6397 5.056 30.943 5.238V6.408C30.553 6.15667 30.1023 5.97033 29.591 5.849C29.0883 5.72767 28.59 5.667 28.096 5.667C26.9953 5.667 26.1807 5.97467 25.652 6.59C25.132 7.19667 24.872 8.11533 24.872 9.346C24.872 10.5853 25.1537 11.5083 25.717 12.115C26.289 12.7217 27.1297 13.025 28.239 13.025C28.7157 13.025 29.1793 12.96 29.63 12.83C30.0893 12.7 30.527 12.479 30.943 12.167V13.337C30.6917 13.5363 30.3233 13.7183 29.838 13.883C29.3613 14.0477 28.7937 14.13 28.135 14.13ZM36.5462 12.713C36.4682 12.869 36.3685 13.0337 36.2472 13.207C36.1259 13.3717 35.9742 13.5233 35.7922 13.662C35.6102 13.8007 35.3935 13.9133 35.1422 14C34.8995 14.0867 34.6135 14.13 34.2842 14.13C33.6775 14.13 33.1879 13.961 32.8152 13.623C32.4425 13.2763 32.2562 12.7823 32.2562 12.141C32.2562 11.4043 32.5119 10.8627 33.0232 10.516C33.5432 10.1693 34.2799 9.996 35.2332 9.996H36.4942V9.437C36.4942 8.969 36.3729 8.63533 36.1302 8.436C35.8875 8.23667 35.4715 8.137 34.8822 8.137C34.4662 8.137 34.0719 8.20633 33.6992 8.345C33.3265 8.475 32.9929 8.62667 32.6982 8.8V7.773C32.9409 7.62567 33.2659 7.48267 33.6732 7.344C34.0892 7.19667 34.5442 7.123 35.0382 7.123C35.8875 7.123 36.5332 7.30067 36.9752 7.656C37.4172 8.00267 37.6382 8.54433 37.6382 9.281V12.908C37.6382 12.986 37.6382 13.077 37.6382 13.181C37.6469 13.2763 37.6512 13.376 37.6512 13.48C37.6599 13.584 37.6685 13.6837 37.6772 13.779C37.6859 13.8657 37.6945 13.9393 37.7032 14H36.6632C36.6372 13.8787 36.6112 13.7097 36.5852 13.493C36.5679 13.2677 36.5592 13.0727 36.5592 12.908L36.5462 12.713ZM34.5312 13.103C34.8865 13.103 35.1899 13.0293 35.4412 12.882C35.6925 12.7347 35.8962 12.5657 36.0522 12.375C36.2082 12.1757 36.3209 11.985 36.3902 11.803C36.4595 11.6123 36.4942 11.478 36.4942 11.4V10.906H35.3502C34.6655 10.906 34.1672 11.0057 33.8552 11.205C33.5519 11.3957 33.4002 11.686 33.4002 12.076C33.4002 12.3793 33.4912 12.6263 33.6732 12.817C33.8552 13.0077 34.1412 13.103 34.5312 13.103ZM42.635 8.137C42.115 8.137 41.6903 8.25833 41.361 8.501C41.0403 8.735 40.7803 9.03833 40.581 9.411V14H39.437V7.253H40.516L40.555 8.462H40.581C40.763 8.072 41.049 7.75133 41.439 7.5C41.829 7.24867 42.323 7.123 42.921 7.123C43.5883 7.123 44.117 7.30067 44.507 7.656C44.9056 8.00267 45.105 8.54 45.105 9.268V14H43.961V9.385C43.961 8.917 43.844 8.592 43.61 8.41C43.376 8.228 43.051 8.137 42.635 8.137ZM49.8265 14.13C49.3065 14.13 48.8342 14.052 48.4095 13.896C47.9935 13.7313 47.6382 13.5017 47.3435 13.207C47.0488 12.9037 46.8235 12.5353 46.6675 12.102C46.5115 11.6687 46.4335 11.1747 46.4335 10.62C46.4335 10.074 46.5115 9.58433 46.6675 9.151C46.8322 8.71767 47.0618 8.35367 47.3565 8.059C47.6512 7.75567 48.0108 7.526 48.4355 7.37C48.8602 7.20533 49.3412 7.123 49.8785 7.123C50.2945 7.123 50.6758 7.17067 51.0225 7.266C51.3692 7.35267 51.6552 7.48267 51.8805 7.656V8.683C51.6032 8.501 51.2912 8.36667 50.9445 8.28C50.6065 8.18467 50.2555 8.137 49.8915 8.137C49.1028 8.137 48.5222 8.34067 48.1495 8.748C47.7855 9.15533 47.6035 9.77933 47.6035 10.62C47.6035 11.4607 47.7812 12.0847 48.1365 12.492C48.4918 12.8993 49.0552 13.103 49.8265 13.103C50.2338 13.103 50.6065 13.0553 50.9445 12.96C51.2912 12.856 51.6032 12.726 51.8805 12.57V13.597C51.6378 13.7443 51.3432 13.87 50.9965 13.974C50.6585 14.078 50.2685 14.13 49.8265 14.13ZM58.6439 13.428C58.5485 13.4973 58.4315 13.571 58.2929 13.649C58.1542 13.727 57.9852 13.805 57.7859 13.883C57.5865 13.9523 57.3612 14.0087 57.1099 14.052C56.8585 14.104 56.5769 14.13 56.2649 14.13C55.1295 14.13 54.2672 13.8223 53.6779 13.207C53.0885 12.5917 52.7939 11.7293 52.7939 10.62C52.7939 10.074 52.8719 9.58433 53.0279 9.151C53.1925 8.71767 53.4179 8.35367 53.7039 8.059C53.9899 7.75567 54.3279 7.526 54.7179 7.37C55.1079 7.20533 55.5325 7.123 55.9919 7.123C56.4772 7.123 56.9105 7.20533 57.2919 7.37C57.6732 7.53467 57.9852 7.77733 58.2279 8.098C58.4792 8.41867 58.6482 8.81733 58.7349 9.294C58.8302 9.762 58.8302 10.308 58.7349 10.932H53.9769C54.0202 11.66 54.2369 12.206 54.6269 12.57C55.0169 12.9253 55.5975 13.103 56.3689 13.103C56.8889 13.103 57.3352 13.0293 57.7079 12.882C58.0805 12.7347 58.3925 12.5743 58.6439 12.401V13.428ZM55.9659 8.137C55.4719 8.137 55.0472 8.28867 54.6919 8.592C54.3365 8.89533 54.1112 9.35467 54.0159 9.97H57.6429C57.6775 9.346 57.5345 8.88667 57.2139 8.592C56.8932 8.28867 56.4772 8.137 55.9659 8.137ZM61.3124 4.679V14H60.1684V4.679H61.3124ZM68.5462 13.428C68.4509 13.4973 68.3339 13.571 68.1952 13.649C68.0565 13.727 67.8875 13.805 67.6882 13.883C67.4889 13.9523 67.2635 14.0087 67.0122 14.052C66.7609 14.104 66.4792 14.13 66.1672 14.13C65.0319 14.13 64.1695 13.8223 63.5802 13.207C62.9909 12.5917 62.6962 11.7293 62.6962 10.62C62.6962 10.074 62.7742 9.58433 62.9302 9.151C63.0949 8.71767 63.3202 8.35367 63.6062 8.059C63.8922 7.75567 64.2302 7.526 64.6202 7.37C65.0102 7.20533 65.4349 7.123 65.8942 7.123C66.3795 7.123 66.8129 7.20533 67.1942 7.37C67.5755 7.53467 67.8875 7.77733 68.1302 8.098C68.3815 8.41867 68.5505 8.81733 68.6372 9.294C68.7325 9.762 68.7325 10.308 68.6372 10.932H63.8792C63.9225 11.66 64.1392 12.206 64.5292 12.57C64.9192 12.9253 65.4999 13.103 66.2712 13.103C66.7912 13.103 67.2375 13.0293 67.6102 12.882C67.9829 12.7347 68.2949 12.5743 68.5462 12.401V13.428ZM65.8682 8.137C65.3742 8.137 64.9495 8.28867 64.5942 8.592C64.2389 8.89533 64.0135 9.35467 63.9182 9.97H67.5452C67.5799 9.346 67.4369 8.88667 67.1162 8.592C66.7955 8.28867 66.3795 8.137 65.8682 8.137ZM74.9068 12.674C74.6988 13.116 74.4084 13.4713 74.0358 13.74C73.6631 14 73.1908 14.13 72.6188 14.13C72.2114 14.13 71.8258 14.0607 71.4618 13.922C71.0978 13.7747 70.7771 13.558 70.4998 13.272C70.2224 12.9773 70.0014 12.6133 69.8368 12.18C69.6721 11.738 69.5898 11.218 69.5898 10.62C69.5898 10.0307 69.6721 9.51933 69.8368 9.086C70.0014 8.644 70.2224 8.28 70.4998 7.994C70.7771 7.69933 71.0978 7.48267 71.4618 7.344C71.8344 7.19667 72.2244 7.123 72.6318 7.123C73.1431 7.123 73.5851 7.23133 73.9578 7.448C74.3304 7.656 74.6294 7.955 74.8548 8.345V4.679H75.9988V14H74.9978L74.9068 12.674ZM72.7878 13.103C73.0824 13.103 73.3554 13.0553 73.6068 12.96C73.8581 12.856 74.0748 12.7 74.2568 12.492C74.4474 12.284 74.5948 12.024 74.6988 11.712C74.8114 11.4 74.8678 11.036 74.8678 10.62C74.8678 10.204 74.8114 9.84 74.6988 9.528C74.5948 9.216 74.4474 8.956 74.2568 8.748C74.0748 8.54 73.8581 8.38833 73.6068 8.293C73.3554 8.189 73.0824 8.137 72.7878 8.137C72.1898 8.137 71.7001 8.34933 71.3188 8.774C70.9461 9.19 70.7598 9.80533 70.7598 10.62C70.7598 11.4433 70.9504 12.063 71.3318 12.479C71.7131 12.895 72.1984 13.103 72.7878 13.103Z" fill="black" fill-opacity="0.7"/>
<defs>
<clipPath id="clip0_3479_35435">
<rect width="12" height="12" fill="white" transform="translate(6 4)"/>
</clipPath>
</defs>
</svg>

<svg xmlns="http://www.w3.org/2000/svg" width="85" height="20" fill="none" viewBox="0 0 85 20">
    <g clip-path="url(#clip0_3479_35435)">
        <path fill="#000" fill-opacity=".7" fill-rule="evenodd" d="M16.125 10a4.125 4.125 0 1 1-8.25 0 4.125 4.125 0 0 1 8.25 0Zm1.125 0a5.25 5.25 0 1 1-10.5 0 5.25 5.25 0 0 1 10.5 0Zm-6.352-1.898a.562.562 0 1 0-.796.796L11.204 10l-1.102 1.102a.562.562 0 1 0 .796.796L12 10.796l1.102 1.102a.562.562 0 1 0 .796-.796L12.796 10l1.102-1.102a.562.562 0 1 0-.796-.796L12 9.204l-1.102-1.102Z" clip-rule="evenodd"/>
    </g>
    <path fill="#000" fill-opacity=".7" d="M28.135 14.13c-.693 0-1.322-.108-1.885-.325a4.127 4.127 0 0 1-1.456-.936 4.285 4.285 0 0 1-.923-1.508c-.217-.598-.325-1.27-.325-2.015 0-.754.1-1.426.299-2.015.2-.59.494-1.088.884-1.495.39-.416.867-.732 1.43-.949.572-.217 1.222-.325 1.95-.325.633 0 1.187.07 1.664.208.477.13.867.286 1.17.468v1.17a4.312 4.312 0 0 0-1.352-.559 6.354 6.354 0 0 0-1.495-.182c-1.1 0-1.915.308-2.444.923-.52.607-.78 1.525-.78 2.756 0 1.24.282 2.162.845 2.769.572.607 1.413.91 2.522.91.477 0 .94-.065 1.391-.195.46-.13.897-.351 1.313-.663v1.17c-.251.2-.62.381-1.105.546-.477.165-1.044.247-1.703.247Zm8.411-1.417c-.078.156-.178.32-.299.494a2.26 2.26 0 0 1-1.105.793c-.242.087-.529.13-.858.13-.606 0-1.096-.169-1.469-.507-.372-.347-.559-.84-.559-1.482 0-.737.256-1.278.767-1.625.52-.347 1.257-.52 2.21-.52h1.261v-.559c0-.468-.121-.802-.364-1.001-.242-.2-.659-.299-1.248-.299-.416 0-.81.07-1.183.208-.372.13-.706.282-1 .455V7.773c.242-.147.567-.29.974-.429a4.063 4.063 0 0 1 1.365-.221c.85 0 1.495.178 1.937.533.442.347.663.888.663 1.625v3.9c.009.095.013.195.013.299l.026.299c.009.087.017.16.026.221h-1.04a5.934 5.934 0 0 1-.078-.507 7.787 7.787 0 0 1-.026-.585l-.013-.195Zm-2.015.39c.355 0 .659-.074.91-.221.252-.147.455-.316.611-.507.156-.2.269-.39.338-.572.07-.19.104-.325.104-.403v-.494H35.35c-.684 0-1.183.1-1.495.299-.303.19-.455.481-.455.871 0 .303.091.55.273.741.182.19.468.286.858.286Zm8.104-4.966c-.52 0-.945.121-1.274.364a2.67 2.67 0 0 0-.78.91V14h-1.144V7.253h1.079l.039 1.209h.026c.182-.39.468-.71.858-.962.39-.251.884-.377 1.482-.377.667 0 1.196.178 1.586.533.399.347.598.884.598 1.612V14h-1.144V9.385c0-.468-.117-.793-.351-.975-.234-.182-.559-.273-.975-.273Zm7.192 5.993c-.52 0-.993-.078-1.417-.234a3.1 3.1 0 0 1-1.066-.689 3.038 3.038 0 0 1-.677-1.105 4.36 4.36 0 0 1-.233-1.482c0-.546.078-1.036.233-1.469.165-.433.395-.797.69-1.092a2.85 2.85 0 0 1 1.078-.689 3.967 3.967 0 0 1 1.444-.247c.416 0 .797.048 1.144.143.346.087.632.217.857.39v1.027a3.03 3.03 0 0 0-.936-.403 3.86 3.86 0 0 0-1.053-.143c-.788 0-1.369.204-1.741.611-.364.407-.547 1.031-.547 1.872 0 .84.178 1.465.533 1.872.356.407.92.611 1.69.611.408 0 .78-.048 1.118-.143a4.56 4.56 0 0 0 .936-.39v1.027a3.984 3.984 0 0 1-2.054.533Zm8.817-.702a3.646 3.646 0 0 1-.858.455c-.2.07-.425.126-.676.169a4.186 4.186 0 0 1-.845.078c-1.136 0-1.998-.308-2.587-.923-.59-.615-.884-1.478-.884-2.587 0-.546.078-1.036.234-1.469a3.15 3.15 0 0 1 .676-1.092 2.812 2.812 0 0 1 1.014-.689c.39-.165.814-.247 1.274-.247.485 0 .919.082 1.3.247.381.165.693.407.936.728.251.32.42.72.507 1.196.095.468.095 1.014 0 1.638h-4.758c.043.728.26 1.274.65 1.638.39.355.97.533 1.742.533.52 0 .966-.074 1.339-.221a4.7 4.7 0 0 0 .936-.481v1.027Zm-2.678-5.291c-.494 0-.919.152-1.274.455-.355.303-.58.763-.676 1.378h3.627c.035-.624-.108-1.083-.43-1.378-.32-.303-.736-.455-1.247-.455Zm5.346-3.458V14h-1.144V4.679h1.144Zm7.234 8.749a3.51 3.51 0 0 1-.35.221 4.075 4.075 0 0 1-.508.234c-.2.07-.425.126-.676.169a4.185 4.185 0 0 1-.845.078c-1.135 0-1.998-.308-2.587-.923-.59-.615-.884-1.478-.884-2.587 0-.546.078-1.036.234-1.469.165-.433.39-.797.676-1.092a2.812 2.812 0 0 1 1.014-.689c.39-.165.815-.247 1.274-.247.485 0 .919.082 1.3.247.382.165.694.407.936.728.252.32.42.72.507 1.196.096.468.096 1.014 0 1.638H63.88c.044.728.26 1.274.65 1.638.39.355.97.533 1.742.533.52 0 .966-.074 1.34-.221a4.69 4.69 0 0 0 .935-.481v1.027Zm-2.678-5.291a1.9 1.9 0 0 0-1.274.455c-.355.303-.58.763-.676 1.378h3.627c.035-.624-.108-1.083-.429-1.378-.32-.303-.737-.455-1.248-.455Zm9.039 4.537a2.708 2.708 0 0 1-.871 1.066c-.373.26-.845.39-1.417.39-.408 0-.793-.07-1.157-.208a2.78 2.78 0 0 1-.962-.65 3.26 3.26 0 0 1-.663-1.092c-.165-.442-.247-.962-.247-1.56 0-.59.082-1.1.247-1.534.164-.442.385-.806.663-1.092a2.56 2.56 0 0 1 .962-.65 3.153 3.153 0 0 1 1.17-.221c.511 0 .953.108 1.326.325.372.208.671.507.897.897V4.679h1.144V14h-1.001l-.091-1.326Zm-2.12.429c.295 0 .568-.048.82-.143.251-.104.468-.26.65-.468.19-.208.338-.468.442-.78.112-.312.169-.676.169-1.092 0-.416-.057-.78-.17-1.092a2.136 2.136 0 0 0-.441-.78 1.614 1.614 0 0 0-.65-.455 2.121 2.121 0 0 0-.82-.156c-.597 0-1.087.212-1.468.637-.373.416-.56 1.031-.56 1.846 0 .823.191 1.443.573 1.859.381.416.866.624 1.456.624Z"/>
    <defs>
        <clipPath id="clip0_3479_35435">
            <path fill="#fff" d="M6 4h12v12H6z"/>
        </clipPath>
    </defs>
</svg>
